X: 8
T: Fisher's
R: hornpipe
M: 4/4
L: 1/8
K: Dmaj
|:(3ABc|dAFD GBAG|FEFA dFGE|FAdc dcBA|BGEF GABc||dAFD GBAG|FEFA dFGE|FA (3def gecd|eddc d2:||:dg|fAdc dfaf|ed (3Bcd efge|fAdc dfaf|(3gfe (3dcB ADFA||BG~G2 BG (3Bcd|AF (3ABc defd|(3ABA fd Bgec|eddc d2:|


Tune 872	Setting 14046

